icons/outline/virus.svg

<!--
category: Health
tags: [infection, illness, cell, infectious, health]
version: "1.2"
unicode: "eb74"
-->
<svg
  xmlns="http://www.w3.org/2000/svg"
  width="24"
  height="24"
  viewBox="0 0 24 24"
  fill="none"
  stroke="currentColor"
  stroke-width="2"
  stroke-linecap="round"
  stroke-linejoin="round"
>
  <path d="M12 12m-5 0a5 5 0 1 0 10 0a5 5 0 1 0 -10 0m5 -5v-4m-1 0h2m2.536 5.464l2.828 -2.828m-.707 -.707l1.414 1.414m-2.071 5.657h4m0 -1v2m-5.465 2.536l2.829 2.828m.707 -.707l-1.414 1.414m-5.657 -2.071v4m1 0h-2m-2.535 -5.464l-2.829 2.828m.707 .707l-1.413 -1.414m2.07 -5.657h-4m0 1v-2m5.464 -2.536l-2.828 -2.828m-.707 .707l1.414 -1.413" />
</svg>

<!--
category: Health
tags: [infection, illness, cell, infectious, health]
version: "1.2"
unicode: "eb74"
-->
<svg
  xmlns="http://www.w3.org/2000/svg"
  width="24"
  height="24"
  viewBox="0 0 24 24"
  fill="none"
  stroke="currentColor"
  stroke-width="2"
  stroke-linecap="round"
  stroke-linejoin="round"
>
    <path d="M12 12m-5 0a5 5 0 1 0 10 0a5 5 0 1 0 -10 0M12 7v-4M11 3h2M15.536 8.464l2.828 -2.828M17.657 4.929l1.414 1.414M17 12h4M21 11v2M15.535 15.536l2.829 2.828M19.071 17.657l-1.414 1.414M12 17v4M13 21h-2M8.465 15.536l-2.829 2.828M6.343 19.071l-1.413 -1.414M7 12h-4M3 13v-2M8.464 8.464l-2.828 -2.828M4.929 6.343l1.414 -1.413" />
</svg>
